svgs/light/boombox.svg

<svg xmlns="http://www.w3.org/2000/svg" viewBox="0 0 640 512"><!--! Font Awesome Pro 6.4.2 by @fontawesome - https://fontawesome.com License - https://fontawesome.com/license (Commercial License) Copyright 2023 Fonticons, Inc. --><path d="M144 32H496c26.5 0 48 21.5 48 48v80H96V80c0-26.5 21.5-48 48-48zM64 80v80c-35.3 0-64 28.7-64 64V448c0 35.3 28.7 64 64 64H576c35.3 0 64-28.7 64-64V224c0-35.3-28.7-64-64-64V80c0-44.2-35.8-80-80-80H144C99.8 0 64 35.8 64 80zM80 192H560h16c17.7 0 32 14.3 32 32V448c0 17.7-14.3 32-32 32H64c-17.7 0-32-14.3-32-32V224c0-17.7 14.3-32 32-32H80zM96 336a80 80 0 1 1 160 0A80 80 0 1 1 96 336zm192 0A112 112 0 1 0 64 336a112 112 0 1 0 224 0zm176-80a80 80 0 1 1 0 160 80 80 0 1 1 0-160zm0 192a112 112 0 1 0 0-224 112 112 0 1 0 0 224zM208 96c-8.8 0-16 7.2-16 16s7.2 16 16 16h32c8.8 0 16-7.2 16-16s-7.2-16-16-16H208zm96 0c-8.8 0-16 7.2-16 16s7.2 16 16 16h32c8.8 0 16-7.2 16-16s-7.2-16-16-16H304zm96 0c-8.8 0-16 7.2-16 16s7.2 16 16 16h32c8.8 0 16-7.2 16-16s-7.2-16-16-16H400z"/></svg>

<svg xmlns="http://www.w3.org/2000/svg" viewBox="0 0 640 512"><!--! Font Awesome Pro 6.0.0-alpha3 by @fontawesome - https://fontawesome.com License - https://fontawesome.com/license (Commercial License) --><path d="M576 160V80C576 35.89 540.1 0 496 0h-352C99.88 0 64 35.89 64 80V160C28.65 160 0 188.7 0 224v224c0 35.35 28.65 64 64 64h512c35.35 0 64-28.65 64-64V224C640 188.7 611.3 160 576 160zM96 80C96 53.53 117.5 32 144 32h352C522.5 32 544 53.53 544 80V160H96V80zM608 448c0 17.64-14.36 32-32 32H64c-17.64 0-32-14.36-32-32V224c0-17.64 14.36-32 32-32h512c17.64 0 32 14.36 32 32V448zM176 224C114.1 224 64 274.1 64 336S114.1 448 176 448S288 397.9 288 336S237.9 224 176 224zM176 416C131.9 416 96 380.1 96 336S131.9 256 176 256S256 291.9 256 336S220.1 416 176 416zM464 224C402.1 224 352 274.1 352 336s50.14 112 112 112s112-50.14 112-112S525.9 224 464 224zM464 416c-44.11 0-80-35.89-80-80S419.9 256 464 256S544 291.9 544 336S508.1 416 464 416zM240 96h-32C199.2 96 192 103.2 192 112S199.2 128 208 128h32C248.8 128 256 120.8 256 112S248.8 96 240 96zM432 96h-32C391.2 96 384 103.2 384 112S391.2 128 400 128h32C440.8 128 448 120.8 448 112S440.8 96 432 96zM336 96h-32C295.2 96 288 103.2 288 112S295.2 128 304 128h32C344.8 128 352 120.8 352 112S344.8 96 336 96z"/></svg>
